X: 305581
M: 4/4
L: 1/8
K: D
d2 fd ec Ac | BdgB BAGF | GBeG FAdF | Ecdf ecA2 |\
d2 fd ec Ac | BdgB BAGF | GBeG FAdF | E2c2 d2z2 :|
b2b2 b2b2 | dBdB g4 | a2a2 a2a2 | cAcA f4 |
d2 fd ec Ac | BdgB BAGF | GBeG FAdF | Ec df e^g a2 |]\
d2 fd ec Ac | BdgB BAGF | GBdG FAdE | E2c2 d2z2 :|


